assets/customers/light/autodesk/autodesk_top.svg

<svg xmlns="http://www.w3.org/2000/svg" width="215" height="22" viewBox="0 0 215 22" fill="none">
  <path d="M214.5 0.574765H208.15L200.543 9.06646V0.574765H195.211L195.238 21.4782H200.543V13.5348L207.757 21.4782H214.5L204.778 11.1576L214.5 0.574765ZM186.614 9.17108L181.753 8.6228C178.903 8.30893 178.199 7.60306 178.199 6.63629C178.199 5.56489 179.662 4.59812 182.511 4.59812C185.255 4.59812 186.692 5.61787 186.953 7.1594H192.181C191.916 2.74272 188.207 0 182.798 0C176.369 0 173.128 2.55996 173.128 7.07994C173.128 10.7643 175.271 12.4899 179.714 12.96L184.654 13.4818C186.536 13.6911 187.399 14.4234 187.399 15.3637C187.399 16.4351 186.144 17.4019 183.112 17.4019C179.609 17.4019 178.199 16.5132 177.963 14.736H172.84C173.076 19.5447 176.212 22 182.929 22C189.07 22 192.495 19.3089 192.495 15.2591C192.495 11.731 190.456 9.61474 186.614 9.17108ZM153.657 21.4782H170.488V16.9582H158.988V13.1693H168.24V8.6228H158.988V5.09475H170.488V0.574765H153.657V21.4782ZM141.112 0.574765H131.337V21.4782H141.112C148.614 21.4782 150.677 18.6825 150.677 10.8689C150.677 3.52673 148.692 0.574765 141.112 0.574765ZM140.897 16.9595H136.658V5.09475H140.897C144.243 5.09475 145.236 6.00987 145.236 10.8689C145.241 15.3107 144.118 16.9595 140.897 16.9595ZM116.858 0C109.252 0 105.306 4.67626 105.306 10.9735C105.306 17.2973 109.252 22 116.858 22C124.49 22 128.436 17.2973 128.436 10.9735C128.436 4.67626 124.49 0 116.858 0ZM116.858 17.2973C112.912 17.2973 110.742 14.8936 110.742 10.9735C110.742 7.13292 112.912 4.70274 116.858 4.70274C120.833 4.70274 122.975 7.13292 122.975 10.9735C122.975 14.8936 120.831 17.2973 116.858 17.2973ZM85.6519 5.09475H92.3945V21.4782H97.7263V5.09475H104.444V0.574765H85.6519V5.09475ZM77.8906 13.4818C77.8906 16.1994 76.2176 17.2973 73.3682 17.2973C70.5983 17.2973 68.7955 16.1477 68.7955 13.4818V0.574765H63.4637V14.0831C63.4637 20.1194 68.8471 22 73.3682 22C77.8642 22 83.2211 20.1194 83.2211 14.0831V0.574765H77.8906V13.4818ZM47.8604 0.574765L39.8368 21.4782H45.3514L46.7516 17.5582H55.709L57.0867 21.4782H62.7828L54.6612 0.574765H47.8604ZM48.3386 13.1163L51.2674 4.92259L54.1473 13.1189L48.3386 13.1163ZM0.164259 21.4795L18.8872 9.8359H28.5996C28.6742 9.8359 28.748 9.85061 28.8169 9.87917C28.8858 9.90774 28.9484 9.94961 29.001 10.0024C29.0537 10.0552 29.0954 10.1178 29.1238 10.1867C29.1522 10.2556 29.1668 10.3295 29.1666 10.404C29.1743 10.5008 29.1533 10.5976 29.1061 10.6824C29.059 10.7672 28.9879 10.8363 28.9017 10.8808L19.7058 16.3927C19.1084 16.7503 18.8991 17.4681 18.8991 18.0058L18.8898 21.4795H30.5761V1.29124C30.5763 1.19442 30.557 1.09855 30.5191 1.00942C30.4813 0.920292 30.4258 0.839753 30.356 0.772667C30.2861 0.705581 30.2034 0.653339 30.1129 0.619098C30.0223 0.584856 29.9257 0.569324 29.8289 0.573441H18.6779L0 12.1667V21.4795H0.164259Z" fill="url(#paint0_linear_10953_13524)"/>
  <defs>
    <linearGradient id="paint0_linear_10953_13524" x1="121.698" y1="4.9213e-07" x2="214.638" y2="20.9268" gradientUnits="userSpaceOnUse">
      <stop stop-color="#1C2024"/>
      <stop offset="1" stop-color="#60646C"/>
    </linearGradient>
  </defs>
</svg>

<svg xmlns="http://www.w3.org/2000/svg" width="215" height="22" fill="none" viewBox="0 0 215 22"><path fill="url(#a)" d="M214.5.575h-6.35l-7.607 8.491V.575h-5.332l.027 20.903h5.305v-7.943l7.214 7.943h6.743l-9.722-10.32zM186.614 9.17l-4.861-.548c-2.85-.314-3.554-1.02-3.554-1.987 0-1.071 1.463-2.038 4.312-2.038 2.744 0 4.181 1.02 4.442 2.561h5.228C191.916 2.743 188.207 0 182.798 0c-6.429 0-9.67 2.56-9.67 7.08 0 3.684 2.143 5.41 6.586 5.88l4.94.522c1.882.21 2.745.941 2.745 1.882 0 1.071-1.255 2.038-4.287 2.038-3.503 0-4.913-.889-5.149-2.666h-5.123c.236 4.809 3.372 7.264 10.089 7.264 6.141 0 9.566-2.691 9.566-6.74 0-3.529-2.039-5.645-5.881-6.089m-32.957 12.307h16.831v-4.52h-11.5V13.17h9.252V8.623h-9.252V5.095h11.5V.575h-16.831zM141.112.575h-9.775v20.903h9.775c7.502 0 9.565-2.796 9.565-10.61 0-7.341-1.985-10.293-9.565-10.293m-.215 16.385h-4.239V5.094h4.239c3.346 0 4.339.915 4.339 5.774.005 4.442-1.118 6.09-4.339 6.09M116.858 0c-7.606 0-11.552 4.676-11.552 10.974 0 6.323 3.946 11.026 11.552 11.026 7.632 0 11.578-4.703 11.578-11.026C128.436 4.676 124.49 0 116.858 0m0 17.297c-3.946 0-6.116-2.403-6.116-6.324 0-3.84 2.17-6.27 6.116-6.27 3.975 0 6.117 2.43 6.117 6.27 0 3.92-2.144 6.324-6.117 6.324M85.652 5.095h6.742v16.383h5.332V5.095h6.718V.575H85.652zm-7.761 8.387c0 2.717-1.673 3.815-4.523 3.815-2.77 0-4.572-1.15-4.572-3.815V.575h-5.332v13.508c0 6.036 5.383 7.917 9.904 7.917 4.496 0 9.853-1.88 9.853-7.917V.575h-5.33zM47.86.575l-8.024 20.903h5.514l1.4-3.92h8.958l1.378 3.92h5.696L54.66.575zm.478 12.541 2.928-8.193 2.88 8.196zM.164 21.48 18.887 9.836H28.6a.567.567 0 0 1 .567.568.49.49 0 0 1-.265.477l-9.196 5.512c-.598.357-.807 1.075-.807 1.613l-.01 3.474h11.687V1.29a.716.716 0 0 0-.747-.718H18.678L0 12.167v9.313z"/><defs><linearGradient id="a" x1="121.698" x2="214.638" y1="0" y2="20.927" gradientUnits="userSpaceOnUse"><stop stop-color="#1C2024"/><stop offset="1" stop-color="#60646C"/></linearGradient></defs></svg>
